X:19049
T:Spootiskerry
R:Reel
C:Ian Burns, 1980
O:Shetland, Scotland
Z:Paul Hardy's Session Tunebook 2015 (see www.paulhardy.net). Creative Commons cc by-nc-sa licenced.
M:4/4
L:1/8
Q:1/4=120
K:G
DE|"G"G2DE GDEG|DEGA B2AB|G2DE "Em"GABd|"C"eged "D"B2AB|
"G"G2DE GDEG|DEGA B2AB|"C"g2ed "Am"edBA|"D7"dBAB "G"G2:|
ef|"Em"g2ed edB2|BABG "C"E2DE|"G"GABd "Em"eged|"A7"B2A2 "D7"A2ef|
"Em"g2ed edB2|BABG "C"E2DE|"G"GABd "C"eged|"D"B2G2 "G"G2ef|
"Em"g2ed edB2|BABG "C"E2DE|"G"GABd "Em"eged|"A7"B2A2 "D7"A2DE|
"G"G2DE GDEG|DEGA B2AB|"C"g2ed "Am"edBA|"D7"dBAB "G"G2|]

